X: 856
T: Sally Ann Johnson
B: jims roots
M:C|
L:1/8
Q: 1/4=100
K:D
V:1 
|:DE | "D"FGAB A3A | "G"BABd "(D)"{e}d2-d2 | "D"f2f2 "Bm"edBd | "Em"fded "A7"BdAG |
"D"FGAB A3A | "G"BABd "(D)"{e}d2-d2 | "D"fgaf "A7"egfe | "D"d3c d2:|
|: (3ABc | "D"defg a4  | "G"b2b2 "D"f3f  | "G"gfgf  "Em"edBd | "(A)"fded "A7"BdA2 |
| "D"defg a4  | "G"b2b2 "D"f3f | "Em"gfgf "(A)"edBd |  "A7"fdec  "D"d2:|
% abcbook-tune_id 6298c2873fcbe62f15f83616


% abcbook-boost 0
% abcbook-tablature 
% abcbook-transpose 
% abcbook-lastupdated 1654178440000
% abcbook-soundfonts 
% abcbook-repeats 1


